!!!!SEGMENT: pl-kk--kk-i-196--002_anonim--iste-est-qui-contempsit-vitam-mundi.krn
!!!cenid: 17xx:2609
!!!COM: Anonim
!!!COM-rismID: pe30004985
!!!CDT:
!!!CNT:
!!!OTL: Iste est qui contempsit vitam mundi
!!!PDT:
!!!AGN: Sacred
!!!YEC: Copyright 2022 Narodowy Instytut Fryderyka Chopina (https://polishscores.org)
!!!YEM: License CC-BY-4.0 (https://creativecommons.org/licenses/by/4.0)
!!!SMS-siglum: PL-Kk
!!!SMS-shelfmark: Kk.I.196
!!!SMS-variant:
!!!SMS-altvar:
!!!SMS-shelfwork: 002 W
!!!NIFC-rismSourceID: 1001152177
!!!NIFC-rismChildID: 1001152179
!!!NIFC-islandoraID: pl-kk:4094
!!!URL-pdf-islandora: https://repozytorium.nifc.pl/islandora/object/pl-kk:4094/datastream/PDF/view
!!!URL-scan: https://polish.musicsources.pl/pl/lokalizacje/galeria/rekopisy/5824/4 @EN{Scan on Polish Music Sources Website} @PL{Skany w portalu Dziedzictwo Muzyki Polskiej w otwartym dostępie}
!!!IIIF:
!!!ONB-nifc: UWAGA: CATBBrip (należy uwzględnić również B rip.) Utwory w źródle: 1. Iste sanctus, 2. Iste est qui contempsit vitam mundi
!!!OMD:
!!!AIN: 1 alto 2 bass 1 canto 1 tenor
!!!key: G:mix
**kern	**text	**kern	**text	**kern	**text	**kern	**text	**kern	**text
*part5	*part5	*part4	*part4	*part3	*part3	*part2	*part2	*part1	*part1
*staff5	*staff5	*staff4	*staff4	*staff3	*staff3	*staff2	*staff2	*staff1	*staff1
*I"Baſso Ripieno.	*	*I"Baſso.	*	*I"Tenore	*	*I"Alto.	*	*I"Canto.	*
*I'B rip	*	*I'B	*	*I'T	*	*I'A	*	*I'S	*
*Ibass	*	*Ibass	*	*Itenor	*	*Ialto	*	*Icanto	*
*ICvox	*	*ICvox	*	*ICvox	*	*ICvox	*	*ICvox	*
*clefF3	*	*clefF3	*	*clefC4	*	*clefC2	*	*clefG2	*
*k[]	*	*k[]	*	*k[]	*	*k[]	*	*k[]	*
*G:mix	*	*G:mix	*	*G:mix	*	*G:mix	*	*G:mix	*
*M2/1	*	*M2/1	*	*M2/1	*	*M2/1	*	*M2/1	*
*met(C|)	*	*met(C|)	*	*met(C|)	*	*met(C|)	*	*met(C|)	*
=1-	=1-	=1-	=1-	=1-	=1-	=1-	=1-	=1-	=1-
1.G	Is-	1.G	Is-	1.B	Is-	1.g	Is-	1.dd	Is-
*	*	*	*	*2\right	*	*2\right	*	*2\right	*
!LO:TX:t=P:problem:kreska pseudotaktowa	!	!LO:TX:t=P:problem:kreska pseudotaktowa	!	!LO:TX:t=P:problem:kreska pseudotaktowa	!	!LO:TX:t=P:problem:kreska pseudotaktowa	!	!LO:TX:t=P:problem:kreska pseudotaktowa	!
2F/	-te	2F/	-te	2A\	-te	2g\	-te	2dd\	-te
=2-	=2-	=2-	=2-	=2-	=2-	=2-	=2-	=2-	=2-
2E,</	est	2E/	est	2B\	est	2g\	est	2dd,<\	est
!LO:TX:t=P:problem:kreska pseudotaktowa	!	!LO:TX:t=P:problem:kreska pseudotaktowa	!	!LO:TX:t=P:problem:kreska pseudotaktowa	!	!LO:TX:t=P:problem:kreska pseudotaktowa	!	!	!
2C/	qui	2C/	qui	2c\	qui	2e\	qui	2ee\	qui
(2D/	con-	(2D/	con-	(2A/	con-	2f#X\	con-	(2dd\	con-
!	!	!	!	!LO:TX:t=P:problem:kreska pseudotaktowa	!	!	!	!LO:TX:t=P:problem:kreska pseudotaktowa	!
2E/)	.	2E/)	.	2G/)	.	1g\	.	2ccn\)	.
=3-	=3-	=3-	=3-	=3-	=3-	=3-	=3-	=3-	=3-
!LO:TX:t=P:problem:kreska pseudotaktowa	!	!LO:TX:t=P:problem:kreska pseudotaktowa	!	!	!	!	!	!	!
1D	-tem-	1D	-tem-	1A	-tem-	.	.	2.dd\	-tem-
.	.	.	.	.	.	2f#X\	-tem-	.	.
.	.	.	.	.	.	.	.	4cc\	.
*2\right	*	*2\right	*	*	*	*	*	*	*
!	!	!	!	!	!	!LO:TX:t=P:problem:kreska pseudotaktowa	!	!	!
2G,<\	-psit	2G,<\	-psit	2G,</	-psit	1g	-psit	2b,</	-psit
!LO:TX:t=P:problem:kreska pseudotaktowa	!	!LO:TX:t=P:problem:kreska pseudotaktowa	!	!LO:TX:t=P:problem:kreska pseudotaktowa	!	!	!	!LO:TX:t=P:problem:kreska pseudotaktowa	!
2G\	con-	2G\	con-	2G/	con-	.	.	2dd\	con-
=4-	=4-	=4-	=4-	=4-	=4-	=4-	=4-	=4-	=4-
2.Fn/	-tem-	2.F/	-tem-	2A/	-tem-	0r	.	2dd\	-tem-
!	!	!	!	!LO:TX:t=P:problem:kreska pseudotaktowa	!	!	!	!	!
.	.	.	.	2A/	-psit	.	.	2ccn\	-psit
!LO:TX:t=P:problem:kreska pseudotaktowa	!	!	!	!	!	!	!	!	!
4F/	-psit	4F/	-psit	.	.	.	.	.	.
2F/	Vi-	2F/	Vi-	2A/	Vi-	.	.	2dd\	Vi-
!LO:TX:t=P:problem:kreska pseudotaktowa	!	!LO:TX:t=P:problem:kreska pseudotaktowa	!	!LO:TX:t=P:problem:kreska pseudotaktowa	!	!	!	!	!
2E/	-tam	2E/	-ta(m)	2G/	-tam	.	.	2ee\	-tam
*custos:D	*	*	*	*custos:A	*	*	*	*	*
=5-	=5-	=5-	=5-	=5-	=5-	=5-	=5-	=5-	=5-
!LO:LB:g=original	!	!LO:TX:t=P:problem:kreska pseudotaktowa	!	!LO:LB:g=original	!	!LO:TX:t=P:problem:kreska pseudotaktowa	!	!LO:TX:t=P:problem:kreska pseudotaktowa	!
1D	mun-	1D	mun-	(2A\	mun-	1r	.	1ffn	mun-
.	.	.	.	2B\)	.	.	.	.	.
*	*	*custos:C	*	*	*	*	*	*	*
!	!	!LO:LB:g=original	!	!	!	!	!	!LO:LB:g=original	!
2C,</	-di	2C,</	-di	2c,<\	-di	2r	.	2ee,<\	-di,
!LO:TX:t=P:problem:kreska pseudotaktowa	!	!	!	!LO:TX:t=P:problem:kreska pseudotaktowa	!	!LO:TX:t=P:problem:kreska pseudotaktowa	!	!LO:TX:t=P:problem:kreska pseudotaktowa	!
2c\	con-	2c\	con-	2c\	con-	2g\	con-	2ee\	con-
=6-	=6-	=6-	=6-	=6-	=6-	=6-	=6-	=6-	=6-
2F/	-tem-	2F\	-tem-	2c\	-tem-	2g\	-tem-	2ff\	-tem-
!LO:TX:t=P:problem:kreska pseudotaktowa	!	!LO:TX:t=P:problem:kreska pseudotaktowa	!	!LO:TX:t=P:problem:kreska pseudotaktowa	!	!	!	!LO:TX:t=P:problem:kreska pseudotaktowa	!
2C,</	-psit	2C,</	-psit	2c,<\	-psit	2g,<\	-psit	2ee,<\	-psit
*	*	*	*	*	*ij	*	*	*	*
!	!	!	!	!	!	!LO:TX:t=P:problem:kreska pseudotaktowa	!	!	!
1G	con-	1G	con-	1B	con-	1g	con-	(2.dd\	con-
.	.	.	.	.	.	.	.	4ee\)	.
*	*	*	*	*	*	*custos:a	*	*	*
=7-	=7-	=7-	=7-	=7-	=7-	=7-	=7-	=7-	=7-
!	!	!	!	!	!	!LO:LB:g=original	!	!	!
2F\	-tem-	2F\	-tem-	2c\	-tem-	2a\	-tem-	2ffn\	-tem-
!LO:TX:t=P:problem:kreska pseudotaktowa	!	!LO:TX:t=P:problem:kreska pseudotaktowa	!	!LO:TX:t=P:problem:kreska pseudotaktowa	!	!LO:TX:t=P:problem:kreska pseudotaktowa	!	!LO:TX:t=P:problem:kreska pseudotaktowa	!
2F,<\	-psit	2F,<\	-psit	2c,<\	-sit	2a\	-psit	2ff\	-psit
*	*	*	*	*	*Xij	*	*	*	*
2F\	Vi-	2F\	Vi-	2A\	Vi-	2a\	Vi-	2.ff\	Vi-
!	!	!	!	!LO:TX:t=P:problem:kreska pseudotaktowa	!	!	!	!	!
2F\	-ta(m)	2F\	-tam	2c\	-tam	2a\	-tam	.	.
.	.	.	.	.	.	.	.	4ee\	-tam
=8-	=8-	=8-	=8-	=8-	=8-	=8-	=8-	=8-	=8-
!	!	!	!	!LO:TX:t=P:problem:kreska pseudotaktowa	!	!	!	!	!
1G	mun-	1G	mun-	1B	mun-	1g	mun-	1dd	mun-
!LO:TX:t=P:problem:kreska pseudotaktowa	!	!LO:TX:t=P:problem:kreska pseudotaktowa	!	!LO:TX:t=P:problem:kreska pseudotaktowa	!	!LO:TX:t=P:problem:kreska pseudotaktowa	!	!LO:TX:t=P:problem:kreska pseudotaktowa	!
1D,<	-di	1D,<	-di	1A,<	-di	1f#X,<	-di	1dd,<	-di,
=9-	=9-	=9-	=9-	=9-	=9-	=9-	=9-	=9-	=9-
!	!	!	!	!LO:LB:g=original	!	!	!	!	!
1E	Vi-	1E	vi-	2r	.	1g	Vi-	1b	Vi-
.	.	.	.	1G	Vi-	.	.	.	.
!LO:TX:t=P:problem:kreska pseudotaktowa	!	!	!	!	!	!LO:TX:t=P:problem:kreska pseudotaktowa	!	!LO:TX:t=P:problem:kreska pseudotaktowa	!
1D	-tam	1D,<	-tam	.	.	1a	-tam	1dd,<	-tam
!	!	!	!	!LO:TX:t=P:problem:kreska pseudotaktowa	!	!	!	!	!
.	.	.	.	2F#X/	-tam	.	.	.	.
=10-	=10-	=10-	=10-	=10-	=10-	=10-	=10-	=10-	=10-
!LO:LB:g=original	!	!	!	!	!	!	!	!	!
(2C/	mun-	(2C/	mun-	(2E/	mun-	1a	mun-	(2ee\	mun-
!LO:TX:t=P:problem:kreska pseudotaktowa	!	!LO:TX:t=P:problem:kreska pseudotaktowa	!	!LO:TX:t=P:problem:kreska pseudotaktowa	!	!	!	!LO:TX:t=P:problem:kreska pseudotaktowa	!
2D/)	.	2D/)	.	2F#X/)	.	.	.	2dd\)	.
2G,<\	-di,	2G,<\	-di,	2G,</	-di	2bn,<\	-di	2dd,<\	-di
!	!	!	!	!	!	!	!	!LO:LB:g=original	!
1G\	et	1G\	et	1G/	et	1b\	et	1dd\	et
=11-	=11-	=11-	=11-	=11-	=11-	=11-	=11-	=11-	=11-
.	.	.	.	.	.	.	.	.	.
!LO:TX:t=P:problem:kreska pseudotaktowa	!	!LO:TX:t=P:problem:kreska pseudotaktowa	!	!LO:TX:t=P:problem:kreska pseudotaktowa	!	!LO:TX:t=P:problem:kreska pseudotaktowa	!	!LO:TX:t=P:problem:kreska pseudotaktowa	!
2G\	per-	2G\	per-	2G/	per-	2g\	per-	2b\	per-
!	!	!LO:LB:g=original	!	!	!	!	!	!	!
2C/	-ve-	2C/	-ve-	2E/	-ve-	2g\	-ve-	2.ee\	-ve-
!LO:TX:t=P:problem:kreska pseudotaktowa	!	!LO:TX:t=P:problem:kreska pseudotaktowa	!	!	!	!	!	!	!
2C/	-nit	2C/	-nit	2G,</	-nit	2g\	-nit	.	.
.	.	.	.	.	.	.	.	8dd\L	-nit
!	!	!	!	!	!	!	!	!LO:TX:t=P:problem:kreska pseudotaktowa	!
.	.	.	.	.	.	.	.	8cc\J	.
=12-	=12-	=12-	=12-	=12-	=12-	=12-	=12-	=12-	=12-
2F/	ad	2F\	ad	2.Fny/	ad	2a\	ad	4dd/	ad
.	.	.	.	.	.	.	.	(<4cc/	.
!	!	!LO:TX:t=P:problem:kreska pseudotaktowa	!	!	!	!LO:TX:t=P:problem:kreska pseudotaktowa	!	!	!
2F/	cae-	2F\	cae-	.	.	2a\	cae-	1cc)	.
!	!	!	!	!LO:TX:t=P:problem:kreska pseudotaktowa	!	!	!	!	!
.	.	.	.	4E/	cae-	.	.	.	.
2G\	-les-	2G\	-les-	2D/	-les-	2g\	-les-	.	.
!	!	!LO:TX:t=P:problem:kreska pseudotaktowa	!	!LO:TX:t=P:problem:kreska pseudotaktowa	!	!	!	!LO:TX:t=P:problem:kreska pseudotaktowa	!
2GG/	-ti-	2GG/	-ti-	2D/	-ti-	2g\	-ti-	2b/	cae-
=13-	=13-	=13-	=13-	=13-	=13-	=13-	=13-	=13-	=13-
!	!	!	!	!	!	!LO:TX:t=P:problem:kreska pseudotaktowa	!	!	!
(2.C/	-a	2.C/	-a	2.E/	-a	1g	-a	(<2cc/	-les-
.	.	.	.	.	.	.	.	1ee)	.
!LO:TX:t=P:problem:kreska pseudotaktowa	!	!LO:TX:t=P:problem:kreska pseudotaktowa	!	!LO:TX:t=P:problem:kreska pseudotaktowa	!	!	!	!	!
4D/)	.	4D/	.	4F/	.	.	.	.	.
*	*	*	*	*custos:G	*	*	*	*	*
!	!	!	!	!LO:LB:g=original	!	!LO:LB:g=original	!	!	!
4E/	.	4E/	.	4G/	.	1g	Re-	.	.
4F/	.	4F/	.	4A/	.	.	.	.	.
!LO:TX:t=P:problem:kreska pseudotaktowa	!	!	!	!LO:TX:t=P:problem:kreska pseudotaktowa	!	!	!	!	!
2G/	.	2G\	.	2Bn\	.	.	.	2dd\	-ti-
*custos:D	*	*	*	*	*	*	*	*	*
=14-	=14-	=14-	=14-	=14-	=14-	=14-	=14-	=14-	=14-
!LO:LB:g=original	!	!LO:TX:t=P:problem:kreska pseudotaktowa	!	!	!	!	!	!LO:TX:t=P:problem:kreska pseudotaktowa	!
0D	Re-	0D	re-	2A\	Re-	2f#X\	.	1dd,<	-a
.	.	.	.	2B\	.	1g	.	.	.
!	!	!	!	!LO:TX:t=P:problem:kreska pseudotaktowa	!	!	!	!	!
.	.	.	.	1A	.	.	.	1dd	Re-
!	!	!	!	!	!	!LO:TX:t=P:problem:kreska pseudotaktowa	!	!	!
.	.	.	.	.	.	2f#X\	.	.	.
=15-	=15-	=15-	=15-	=15-	=15-	=15-	=15-	=15-	=15-
!	!	!	!	!LO:TX:t=P:problem:kreska pseudotaktowa	!	!	!	!	!
2G,<\	-gna	2GG,</	-gna	1B,<	-gna	2g\	-gna	2dd\	-gna
!LO:TX:t=P:problem:kreska pseudotaktowa	!	!LO:TX:t=P:problem:kreska pseudotaktowa	!	!	!	!LO:TX:t=P:problem:kreska pseudotaktowa	!	!LO:TX:t=P:problem:kreska pseudotaktowa	!
2G\	Fun-	2G\	Fun-	.	.	2r	.	2r	.
!	!	!	!	!LO:TX:t=P:problem:kreska pseudotaktowa	!	!	!	!	!
1A	-da-	1A	-da-	00r	.	2e\	Fun-	2r	.
!	!	!	!	!	!	!	!	!LO:TX:t=P:problem:kreska pseudotaktowa	!
.	.	.	.	.	.	1fn\	-da-	2cc\	Fun-
=16-	=16-	=16-	=16-	=16-	=16-	=16-	=16-	=16-	=16-
!	!	!	!	!	!	!	!	!LO:TX:t=P:problem:kreska pseudotaktowa	!
2F,</	-t(us)	2F,<\	-t(us)	.	.	.	.	1dd	-da-
1G	e-	1G	e-	.	.	2d/	-t(us)	.	.
*	*	*	*	*	*	*	*	*custos:b	*
!	!	!	!	!	!	!LO:TX:t=P:problem:kreska pseudotaktowa	!	!LO:LB:g=original	!
.	.	.	.	.	.	1e	e-	2b,<\	-tus
!LO:TX:t=P:problem:kreska pseudotaktowa	!	!LO:TX:t=P:problem:kreska pseudotaktowa	!	!	!	!	!	!	!
2E/	-nim	2E/	-nim	.	.	.	.	1cc\	e-
=17-	=17-	=17-	=17-	=17-	=17-	=17-	=17-	=17-	=17-
!	!	!LO:LB:g=original	!	!	!	!	!	!	!
1F	e-	1F	e-	.	.	2c,</	-nim	.	.
.	.	.	.	.	.	1f	e-	2a/	-nim
!LO:TX:t=P:problem:kreska pseudotaktowa	!	!LO:TX:t=P:problem:kreska pseudotaktowa	!	!	!	!	!	!	!
1C,<	-rat	1C,<	-rat	2r	.	.	.	(<2.cc\	e-
!	!	!	!	!	!	!LO:TX:t=P:problem:kreska pseudotaktowa	!	!	!
.	.	.	.	2c\	Fun-	2e\	-rat	.	.
.	.	.	.	.	.	.	.	8b/L	.
.	.	.	.	.	.	.	.	8a/J)	.
=18-	=18-	=18-	=18-	=18-	=18-	=18-	=18-	=18-	=18-
!LO:TX:t=P:problem:kreska pseudotaktowa	!	!	!	!LO:TX:t=P:problem:kreska pseudotaktowa	!	!	!	!LO:TX:t=P:problem:kreska pseudotaktowa	!
1r	.	1r	.	1d	-da-	1.g	sup-	0g,<	-rat
2r	.	2r	.	2B,<\	-t(us)	.	.	.	.
!	!	!LO:TX:t=P:problem:kreska pseudotaktowa	!	!	!	!	!	!	!
2C/	Fun-	2C/	Fun-	1c\	e-	2e\	-ra	.	.
=19-	=19-	=19-	=19-	=19-	=19-	=19-	=19-	=19-	=19-
1F	-da-	1F	-da-	.	.	2f\	fir-	1r	.
!	!	!	!	!LO:TX:t=P:problem:kreska pseudotaktowa	!	!LO:TX:t=P:problem:kreska pseudotaktowa	!	!	!
.	.	.	.	2A/	-nim	2f\	-mam	.	.
2C,</	-t(us)	2C,</	-t(us)	1c	e-	1e	pe-	2r	.
1c\	e-	1c\	e-	.	.	.	.	1gg\	sup-
=20-	=20-	=20-	=20-	=20-	=20-	=20-	=20-	=20-	=20-
!	!	!	!	!LO:TX:t=P:problem:kreska pseudotaktowa	!	!LO:TX:t=P:problem:kreska pseudotaktowa	!	!	!
.	.	.	.	1G	-rat	1d	-tram	.	.
*	*	*	*	*custos:d	*	*	*	*	*
!LO:TX:t=P:problem:kreska pseudotaktowa	!	!LO:TX:t=P:problem:kreska pseudotaktowa	!	!	!	!	!	!LO:TX:t=P:problem:kreska pseudotaktowa	!
2B\	-nim	2B\	-nim	.	.	.	.	2dd\	-ra
!LO:LB:g=original	!	!	!	!LO:LB:g=original	!	!LO:TX:t=P:problem:kreska pseudotaktowa	!	!	!
1A	e-	1A	e-	0r	.	1r	.	2ee\	fir-
!	!	!	!	!	!	!	!	!LO:TX:t=P:problem:kreska pseudotaktowa	!
.	.	.	.	.	.	.	.	2ff\	-ma(m)
=21-	=21-	=21-	=21-	=21-	=21-	=21-	=21-	=21-	=21-
!	!	!	!	!	!	!LO:LB:g=original	!	!	!
2G,<\	-rat	2G,<\	-rat	.	.	2r	.	2.gg\	pe-
1c	Fun-	1c	Fun-	.	.	2g\	Fun-	.	.
!	!	!	!	!	!	!	!	!LO:TX:t=P:problem:kreska pseudotaktowa	!
.	.	.	.	.	.	.	.	4ff\	.
!	!	!	!	!LO:TX:t=P:problem:kreska pseudotaktowa	!	!LO:TX:t=P:problem:kreska pseudotaktowa	!	!	!
.	.	.	.	1r	.	1a	-da-	2ee\	.
1d\	-da-	1d\	-da-	.	.	.	.	2ff\	.
=22-	=22-	=22-	=22-	=22-	=22-	=22-	=22-	=22-	=22-
!	!	!	!	!	!	!	!	!LO:TX:t=P:problem:kreska pseudotaktowa	!
.	.	.	.	2r	.	2f,<\	-t(us)	1dd,<	-tram
!LO:TX:t=P:problem:kreska pseudotaktowa	!	!LO:TX:t=P:problem:kreska pseudotaktowa	!	!	!	!	!	!	!
2Bn\	-t(us)	2B\	-t(us)	2d\	Fun-	1g	e-	.	.
!	!	!	!	!LO:TX:t=P:problem:kreska pseudotaktowa	!	!	!	!LO:LB:g=original	!
1c	e-	1c	e-	1e	-da-	.	.	0r	.
!	!	!	!	!	!	!LO:TX:t=P:problem:kreska pseudotaktowa	!	!	!
.	.	.	.	.	.	2e\	-nim	.	.
=23-	=23-	=23-	=23-	=23-	=23-	=23-	=23-	=23-	=23-
2A\	-nim	2A\	-nim	2c,<\	-t(us)	1f	e-	.	.
1Bn	e-	1Bn	e-	1d	e-	.	.	.	.
!	!	!	!	!	!	!	!	!LO:TX:t=P:problem:kreska pseudotaktowa	!
.	.	.	.	.	.	2d,</	-rat	1r	.
!	!	!LO:TX:t=P:problem:kreska pseudotaktowa	!	!LO:TX:t=P:problem:kreska pseudotaktowa	!	!	!	!	!
2G\	-rat	2G\	-rat	2B\	-nim	2g\	sup-	.	.
=24-	=24-	=24-	=24-	=24-	=24-	=24-	=24-	=24-	=24-
!LO:TX:t=P:problem:kreska pseudotaktowa	!	!LO:TX:t=P:problem:kreska pseudotaktowa	!	!	!	!	!	!	!
!	!	!LO:LB:g=original	!	!	!	!	!	!	!
1A	sup-	1A	sup-	1c	e-	2e,<\	-ra	1ee	Fun-
.	.	.	.	.	.	1a	fir-	.	.
2F,<\	-ra	2F,<\	-ra	2A,</	-rat	.	.	2ff\	-da-
!	!	!	!	!	!	!LO:TX:t=P:problem:kreska pseudotaktowa	!	!LO:TX:t=P:problem:kreska pseudotaktowa	!
1G\	fir-	1G\	fir-	1Bn\	sup-	2g\	-ma	2dd\	-t(us)
=25-	=25-	=25-	=25-	=25-	=25-	=25-	=25-	=25-	=25-
.	.	.	.	.	.	2d/	pet-	2gg\	e-
!LO:TX:t=P:problem:kreska pseudotaktowa	!	!LO:TX:t=P:problem:kreska pseudotaktowa	!	!LO:TX:t=P:problem:kreska pseudotaktowa	!	!	!	!	!
2C/	-ma	2C/	-ma	2c\	-ra	1g	.	2ee,<\	-nim
1D	pe-	1D	pe-	2A\	fir-	.	.	1.dd	e-
.	.	.	.	2A\	-mam	2f#X\	.	.	.
=26-	=26-	=26-	=26-	=26-	=26-	=26-	=26-	=26-	=26-
!LO:TX:t=P:problem:kreska pseudotaktowa	!	!LO:TX:t=P:problem:kreska pseudotaktowa	!	!	!	!LO:TX:t=P:problem:kreska pseudotaktowa	!	!	!
1G	-tram	1G,<	-tram	1Bn	pe-	1g,<	-ram	.	.
!	!	!	!	!	!	!	!	!LO:TX:t=P:problem:kreska pseudotaktowa	!
.	.	.	.	.	.	.	.	2dd,<\	-rat
!LO:LB:g=original	!	!	!	!LO:TX:t=P:problem:kreska pseudotaktowa	!	!	!	!	!
2r	.	2r	.	1G,<	-tram	2r	.	2.b\	su-
1G\	Fun-	1G\	Fun-	.	.	2g\	Fun-	.	.
.	.	.	.	.	.	.	.	4cc,<\	-pra
=27-	=27-	=27-	=27-	=27-	=27-	=27-	=27-	=27-	=27-
!	!	!	!	!LO:LB:g=original	!	!	!	!	!
.	.	.	.	2r	.	2g\	-da-	(2dd\	fir-
!	!	!LO:TX:t=P:problem:kreska pseudotaktowa	!	!LO:TX:t=P:problem:kreska pseudotaktowa	!	!LO:TX:t=P:problem:kreska pseudotaktowa	!	!LO:TX:t=P:problem:kreska pseudotaktowa	!
1A	-da-	[<2A\	-da-	[<2c\	Fun-	2e\	-t(us)	2cc\)	.
*	*	*	*	*	*	*custos:a	*	*	*
!	!	!	!	!	!	!LO:LB:g=original	!	!	!
.	.	2A\]	.	2c\]	.	2a\	e-	2a/	.
!LO:TX:t=P:problem:kreska pseudotaktowa	!	!LO:TX:t=P:problem:kreska pseudotaktowa	!	!	!	!LO:TX:t=P:problem:kreska pseudotaktowa	!	!LO:TX:t=P:problem:kreska pseudotaktowa	!
2F/	-t(us)	2F/	-t(us)	1d\	-da-	2a\	-nim	2a,</	-mam
=28-	=28-	=28-	=28-	=28-	=28-	=28-	=28-	=28-	=28-
1G	e-	1G	e-	.	.	1.g	e-	1b	pe-
!	!	!	!	!LO:TX:t=P:problem:kreska pseudotaktowa	!	!	!	!	!
.	.	.	.	2B\	-t(us)	.	.	.	.
2E,</	-nim	2E,</	-nim	2c\	e-	.	.	2g,</	-tra
1F\	e-	1F\	e-	1A\	-nim	2a\	-rat	(2.cc\	su-
=29-	=29-	=29-	=29-	=29-	=29-	=29-	=29-	=29-	=29-
.	.	.	.	.	.	2fny\	sup-	.	.
.	.	.	.	.	.	.	.	4dd\)	.
!LO:TX:t=P:problem:kreska pseudotaktowa	!	!LO:TX:t=P:problem:kreska pseudotaktowa	!	!	!	!LO:TX:t=P:problem:kreska pseudotaktowa	!	!LO:TX:t=P:problem:kreska pseudotaktowa	!
2C/	-rat	2C/	-rat	1c	e-	2g\	-ra	2ee\	.
*	*	*custos:F	*	*	*	*	*	*	*
!	!	!LO:LB:g=original	!	!	!	!	!	!LO:LB:g=original	!
1.F	sup-	1.F	sup-	.	.	(4a\	fir-	2a,</	-pra
.	.	.	.	.	.	4g\	.	.	.
!	!	!	!	!LO:TX:t=P:problem:kreska pseudotaktowa	!	!	!	!	!
.	.	.	.	2A\	-rat	4f\	.	(2.cc\	fir-
!	!	!	!	!	!	!LO:TX:t=P:problem:kreska pseudotaktowa	!	!	!
.	.	.	.	.	.	4e\)	.	.	.
=30-	=30-	=30-	=30-	=30-	=30-	=30-	=30-	=30-	=30-
.	.	.	.	2.c\	sup-	2f\	.	.	.
.	.	.	.	.	.	.	.	4dd\)	.
!LO:TX:t=P:problem:kreska pseudotaktowa	!	!	!	!	!	!	!	!LO:TX:t=P:problem:kreska pseudotaktowa	!
2E/	-ra	2E/	-ra	.	.	2g,<\	-mam	2ee,<\	-mam
.	.	.	.	4B\	-ra	.	.	.	.
!	!	!	!	!	!	!	!	!LO:TX:t=P:problem:kreska pseudotaktowa	!
2F\	fir-	2F\	fir-	2A\	fir-	2a\	Pe-	[<1dd	pe-
!LO:TX:t=P:problem:kreska pseudotaktowa	!	!LO:TX:t=P:problem:kreska pseudotaktowa	!	!LO:TX:t=P:problem:kreska pseudotaktowa	!	!LO:TX:t=P:problem:kreska pseudotaktowa	!	!	!
2G\	-ma(m)	2G\	-ma(m)	2Bn\	-ma(m)	2g\	.	.	.
=31-	=31-	=31-	=31-	=31-	=31-	=31-	=31-	=31-	=31-
0D	pe-	0D	pe-	(2A/	Pe-	2f#X\	.	0dd]	.
.	.	.	.	2G/)	.	1g	.	.	.
.	.	.	.	1A	.	.	.	.	.
!	!	!	!	!	!	!LO:TX:t=P:problem:kreska pseudotaktowa	!	!	!
.	.	.	.	.	.	2f#X\	.	.	.
=32-	=32-	=32-	=32-	=32-	=32-	=32-	=32-	=32-	=32-
!LO:TX:b:t=O ad M.D. G	!	!	!	!	!	!	!	!	!
0G;	-tram.	0G;	-tram.	0B;	-tram.	0g;	-tram.	0dd;,<	-tram.
=-	=-	=-	=-	=-	=-	=-	=-	=-	=-
*-	*-	*-	*-	*-	*-	*-	*-	*-	*-
!!!system-decoration: [(s1,s2,s3,s4,s5)]
!!!RDF**kern: < = below
!!!ENC: Filip Voros
!!!END: 2023-04-16
!!!EED: Marta Chmielewska
!!!EEV: 2024-05-31
